X: 305817
M: 2/4
L: 1/16
K: G
dedc BcdB | G2G2 A4 | Bdef g2f2 | e4{fg} d2Bc |\
dedc BcdB | FGAc BcAB | G2FG G2 H|]
g2fg edcB | cdec A2c2 | BcAc G2F2 | G4 "^D.C."G2 |]


